dist/static/img/support/adv-4.svg

<svg width="48" height="48" viewBox="0 0 48 48" fill="none" xmlns="http://www.w3.org/2000/svg">
<path d="M1.5 41.25V45.75C1.5 46.164 1.836 46.5 2.25 46.5H12.75C13.164 46.5 13.5 46.164 13.5 45.75V41.25C13.5 38.895 12.1327 36.858 10.1528 35.8762C11.2702 35.0572 12 33.7387 12 32.25C12 29.7682 9.98175 27.75 7.5 27.75C5.01825 27.75 3 29.7682 3 32.25C3 33.7387 3.72975 35.0572 4.84725 35.8762C2.86725 36.858 1.5 38.895 1.5 41.25ZM7.5 36.75C7.75125 36.75 7.9965 36.7755 8.2365 36.816C8.202 37.197 7.89 37.5 7.5 37.5C7.11 37.5 6.798 37.197 6.7635 36.816C7.0035 36.7755 7.24875 36.75 7.5 36.75ZM7.5 29.25C8.46825 29.25 9.32175 29.7187 9.87075 30.4327C9.12 30.15 8.32275 30 7.5 30C6.67725 30 5.88 30.15 5.12925 30.4327C5.67825 29.7187 6.53175 29.25 7.5 29.25ZM4.52025 32.451C5.40375 31.8383 6.42225 31.5 7.5 31.5C8.57775 31.5 9.59625 31.8383 10.4797 32.451C10.374 34.0103 9.0855 35.25 7.5 35.25C5.9145 35.25 4.626 34.0103 4.52025 32.451ZM5.3295 37.3103C5.58 38.2793 6.45375 39 7.5 39C8.54625 39 9.42 38.2793 9.6705 37.3103C11.058 38.0783 12 39.5557 12 41.25V45H3V41.25C3 39.5557 3.942 38.0783 5.3295 37.3103Z" fill="white"/>
<path d="M41.25 30V24C41.25 21.246 39.5895 18.8752 37.2195 17.8267C38.2987 17.004 39 15.7088 39 14.25C39 11.7682 36.9818 9.75 34.5 9.75C32.0182 9.75 30 11.7682 30 14.25C30 15.7088 30.7005 17.0032 31.779 17.826C31.0245 18.1582 30.327 18.6263 29.7225 19.2262C28.4505 20.5072 27.75 22.203 27.75 24V30C27.75 30.414 28.086 30.75 28.5 30.75H40.5C40.914 30.75 41.25 30.414 41.25 30ZM34.5 20.019L35.202 21.7733L34.5 23.8785L33.798 21.7733L34.5 20.019ZM34.5 11.25C35.4682 11.25 36.3217 11.7187 36.8707 12.4327C36.12 12.15 35.3228 12 34.5 12C33.6772 12 32.88 12.15 32.1293 12.4327C32.6783 11.7187 33.5318 11.25 34.5 11.25ZM31.5203 14.451C32.4038 13.8382 33.4222 13.5 34.5 13.5C35.5778 13.5 36.5962 13.8382 37.4797 14.451C37.374 16.0102 36.0855 17.25 34.5 17.25C32.9145 17.25 31.626 16.0102 31.5203 14.451ZM39.75 29.25H29.25V24C29.25 22.6012 29.796 21.2812 30.783 20.2867C31.4985 19.5765 32.3813 19.0995 33.3383 18.8835L32.3032 21.471C32.238 21.636 32.232 21.8182 32.2882 21.987L33.7882 26.487C33.891 26.7938 34.1768 27 34.5 27C34.8232 27 35.109 26.7938 35.2118 26.487L36.7118 21.987C36.768 21.8182 36.762 21.636 36.6968 21.471L35.6617 18.8835C37.9987 19.4145 39.75 21.5048 39.75 24V29.25Z" fill="white"/>
<path d="M46.4608 6.594C46.3715 6.32775 46.1405 6.1335 45.8623 6.09075L42.1115 5.5215L40.4285 1.932C40.3055 1.668 40.0408 1.5 39.7498 1.5C39.4588 1.5 39.194 1.668 39.071 1.932L37.388 5.5215L33.6373 6.09075C33.359 6.1335 33.128 6.327 33.0388 6.594C32.9495 6.861 33.017 7.155 33.2128 7.356L34.7128 8.8935L35.7868 7.8465L35.3068 7.3545L38.0098 6.94425C38.2573 6.90675 38.4695 6.74775 38.576 6.52125L39.7498 4.017L40.9235 6.5205C41.03 6.74775 41.2423 6.906 41.4898 6.9435L44.1928 7.35375L42.2128 9.38325C42.047 9.5535 41.9713 9.792 42.0095 10.0268L42.467 12.8468L40.1128 11.5455L39.3868 12.858L43.0918 14.9055C43.205 14.9685 43.3303 15 43.4548 15C43.6063 15 43.7578 14.9535 43.8868 14.8635C44.1215 14.6978 44.2415 14.4135 44.1958 14.13L43.5515 10.161L46.2875 7.35675C46.4833 7.155 46.55 6.86025 46.4608 6.594Z" fill="white"/>
<path d="M21.75 4.5H6C5.17275 4.5 4.5 5.17275 4.5 6V18.75C4.5 19.5773 5.17275 20.25 6 20.25H21.75C22.5772 20.25 23.25 19.5773 23.25 18.75V14.4945L27.5437 15.7215C27.8722 15.8153 28.2225 15.675 28.3965 15.381C28.5697 15.0862 28.5218 14.712 28.2803 14.4705L23.25 9.4395V6C23.25 5.17275 22.5772 4.5 21.75 4.5ZM25.173 13.4843L23.6625 13.0522C23.2043 12.921 22.7257 13.0118 22.347 13.2968C21.9675 13.5825 21.75 14.019 21.75 14.4945V18.75H6V6H21.75V9.4395C21.75 9.84 21.906 10.2165 22.1895 10.5L25.173 13.4843Z" fill="white"/>
<path d="M19.5 44.25H29.25C30.0772 44.25 30.75 43.5773 30.75 42.75V34.5C30.75 33.6727 30.0772 33 29.25 33H19.5C18.6727 33 18 33.6727 18 34.5V36.6143L14.3737 36.0098C14.0392 35.9535 13.71 36.129 13.5682 36.4365C13.4272 36.7448 13.5097 37.1085 13.77 37.3252L18 40.8502V42.75C18 43.5773 18.6727 44.25 19.5 44.25ZM16.8547 37.9447L18.6262 38.2402C18.8415 38.2755 19.0657 38.2147 19.2345 38.073C19.4032 37.9297 19.5 37.7205 19.5 37.5V34.5H29.25V42.75H19.5V40.5C19.5 40.2772 19.401 40.0665 19.23 39.924L16.8547 37.9447Z" fill="white"/>
<path d="M21 36H22.5V37.5H21V36Z" fill="white"/>
<path d="M24 36H27.75V37.5H24V36Z" fill="white"/>
<path d="M21 39.75H22.5V41.25H21V39.75Z" fill="white"/>
<path d="M24 39.75H27.75V41.25H24V39.75Z" fill="white"/>
<path d="M11.9715 14.66L9.53023 12.2195L8.46973 13.28L11.4697 16.28C11.61 16.421 11.8012 16.4998 12 16.4998H12.0195C12.225 16.4945 12.4192 16.4053 12.5572 16.2515L19.3072 8.75155L18.1927 7.74805L11.9715 14.66Z" fill="white"/>
</svg>

<svg width="48" height="48" viewBox="0 0 48 48" fill="none" xmlns="http://www.w3.org/2000/svg"><path d="M1.5 41.25v4.5c0 .414.336.75.75.75h10.5a.75.75 0 00.75-.75v-4.5a6.002 6.002 0 00-3.347-5.374A4.49 4.49 0 0012 32.25c0-2.482-2.018-4.5-4.5-4.5a4.504 4.504 0 00-4.5 4.5 4.49 4.49 0 001.847 3.626A6.002 6.002 0 001.5 41.25zm6-4.5c.251 0 .497.026.736.066a.744.744 0 01-.736.684.744.744 0 01-.737-.684c.24-.04.486-.066.737-.066zm0-7.5c.968 0 1.822.469 2.37 1.183a6.706 6.706 0 00-4.74 0A2.987 2.987 0 017.5 29.25zm-2.98 3.201A5.194 5.194 0 017.5 31.5c1.078 0 2.096.338 2.98.951A2.995 2.995 0 017.5 35.25a2.995 2.995 0 01-2.98-2.799zm.81 4.86A2.247 2.247 0 007.5 39c1.046 0 1.92-.72 2.17-1.69A4.503 4.503 0 0112 41.25V45H3v-3.75c0-1.694.942-3.172 2.33-3.94zM41.25 30v-6a6.756 6.756 0 00-4.03-6.173A4.491 4.491 0 0039 14.25c0-2.482-2.018-4.5-4.5-4.5a4.504 4.504 0 00-4.5 4.5c0 1.459.7 2.753 1.779 3.576-.755.332-1.452.8-2.056 1.4A6.736 6.736 0 0027.75 24v6c0 .414.336.75.75.75h12a.75.75 0 00.75-.75zm-6.75-9.981l.702 1.754-.702 2.105-.702-2.105.702-1.754zm0-8.769c.968 0 1.822.469 2.37 1.183a6.705 6.705 0 00-4.74 0 2.987 2.987 0 012.37-1.183zm-2.98 3.201a5.193 5.193 0 012.98-.951c1.078 0 2.096.338 2.98.951a2.995 2.995 0 01-2.98 2.799 2.995 2.995 0 01-2.98-2.799zm8.23 14.799h-10.5V24c0-1.399.546-2.719 1.533-3.713a5.259 5.259 0 012.555-1.403l-1.035 2.587a.754.754 0 00-.015.516l1.5 4.5a.75.75 0 001.424 0l1.5-4.5a.754.754 0 00-.015-.516l-1.035-2.587A5.257 5.257 0 0139.75 24v5.25z" fill="#fff"/><path d="M46.46 6.594a.751.751 0 00-.598-.503l-3.75-.57-1.684-3.589a.748.748 0 00-1.357 0l-1.683 3.59-3.75.569a.75.75 0 00-.425 1.265l1.5 1.537 1.074-1.047-.48-.492 2.703-.41a.75.75 0 00.566-.423l1.174-2.504 1.173 2.503a.749.749 0 00.567.424l2.703.41-1.98 2.03a.75.75 0 00-.203.643l.457 2.82-2.354-1.301-.726 1.312 3.705 2.047a.747.747 0 00.795-.041.751.751 0 00.309-.734l-.645-3.969 2.736-2.804a.753.753 0 00.174-.763zM21.75 4.5H6c-.827 0-1.5.673-1.5 1.5v12.75c0 .827.673 1.5 1.5 1.5h15.75c.827 0 1.5-.673 1.5-1.5v-4.255l4.294 1.227a.75.75 0 00.737-1.251L23.25 9.44V6c0-.827-.673-1.5-1.5-1.5zm3.423 8.984l-1.51-.432a1.488 1.488 0 00-1.316.245c-.38.285-.597.722-.597 1.197v4.256H6V6h15.75v3.44c0 .4.156.777.44 1.06l2.983 2.984zM19.5 44.25h9.75c.827 0 1.5-.673 1.5-1.5V34.5c0-.827-.673-1.5-1.5-1.5H19.5c-.827 0-1.5.673-1.5 1.5v2.114l-3.626-.604a.75.75 0 00-.604 1.315L18 40.85v1.9c0 .827.673 1.5 1.5 1.5zm-2.645-6.305l1.771.295a.751.751 0 00.874-.74v-3h9.75v8.25H19.5V40.5a.75.75 0 00-.27-.576l-2.375-1.98z" fill="#fff"/><path d="M21 36h1.5v1.5H21V36zm3 0h3.75v1.5H24V36zm-3 3.75h1.5v1.5H21v-1.5zm3 0h3.75v1.5H24v-1.5zM11.972 14.66L9.53 12.22l-1.06 1.06 3 3c.14.141.331.22.53.22h.02a.747.747 0 00.537-.248l6.75-7.5-1.114-1.004-6.222 6.912z" fill="#fff"/></svg>
